X:8648
T:Kiss Me Kate
M:C
L:1/8
K:G Major
G2Bd gdBG|D2GB ADEF|G2Bd gdBG|ecBc ADEF|!
G2Bd gdBG|D2GB ADEF|G2Bd gdBG|ecBc AGGg|]!
fgag fddg|fgag bgeg|fgag feeg|fdef g2ef|!
gbaf g2bg|fgag fddg|fded fded|fdef gedB|]!

